assets/images/learn-tv-icon.svg

<svg width="96" height="96" viewBox="0 0 96 96" fill="none" xmlns="http://www.w3.org/2000/svg">
<path d="M48 94C73.4051 94 94 73.4051 94 48C94 22.5949 73.4051 2 48 2C22.5949 2 2 22.5949 2 48C2 73.4051 22.5949 94 48 94Z" fill="url(#paint0_linear)"/>
<path d="M48 4C72.3 4 92 23.7 92 48C92 72.3 72.3 92 48 92C23.7 92 4 72.3 4 48C4 23.7 23.7 4 48 4ZM48 0C21.5 0 0 21.5 0 48C0 74.5 21.5 96 48 96C74.5 96 96 74.5 96 48C96 21.5 74.5 0 48 0Z" fill="#969696"/>
<path d="M32.3584 29.4717H25.6792V57.3019H32.3584V29.4717Z" fill="#E6E4E3"/>
<path d="M39.0376 29.4717H32.3584V57.3019H39.0376V29.4717Z" fill="url(#paint1_linear)"/>
<path d="M45.7171 29.4717H39.0378V57.3019H45.7171V29.4717Z" fill="url(#paint2_linear)"/>
<path d="M52.3963 29.4717H45.717V57.3019H52.3963V29.4717Z" fill="url(#paint3_linear)"/>
<path d="M57.9623 29.4717H52.3962V57.3019H57.9623V29.4717Z" fill="url(#paint4_linear)"/>
<path d="M64.6414 29.4717H57.9622V57.3019H64.6414V29.4717Z" fill="url(#paint5_linear)"/>
<path d="M71.3208 29.4717H64.6416V57.3019H71.3208V29.4717Z" fill="url(#paint6_linear)"/>
<path d="M32.3584 57.302H25.6792V65.0945H32.3584V57.302Z" fill="#FFFDFE"/>
<path d="M39.0376 57.302H32.3584V65.0945H39.0376V57.302Z" fill="url(#paint7_linear)"/>
<path d="M45.7171 57.302H39.0378V65.0945H45.7171V57.302Z" fill="url(#paint8_linear)"/>
<path d="M52.3963 57.302H45.717V65.0945H52.3963V57.302Z" fill="url(#paint9_linear)"/>
<path d="M57.9623 57.302H52.3962V65.0945H57.9623V57.302Z" fill="url(#paint10_linear)"/>
<path d="M64.6414 57.302H57.9622V65.0945H64.6414V57.302Z" fill="url(#paint11_linear)"/>
<path d="M71.3208 57.302H64.6416V65.0945H71.3208V57.302Z" fill="url(#paint12_linear)"/>
<path d="M74.049 27.6544C71.5132 25.0942 68.1814 23.695 64.6137 23.695H55.1489V22.7424C55.1489 21.3432 54.0285 20.212 52.6427 20.212H51.8171L56.8296 13.9306C57.3013 13.3352 57.2129 12.4421 56.6232 11.9658C56.0335 11.4895 55.1489 11.5788 54.6772 12.1742L48.6917 19.7357L45.7431 14.5558C45.3598 13.9008 44.5342 13.6627 43.8561 14.0497C43.2074 14.4367 42.9715 15.2702 43.3548 15.9549L45.8021 20.3013H44.3573C42.9715 20.3013 41.8511 21.4325 41.8511 22.8317V23.7843H32.3568C28.7891 23.7843 25.4278 25.1835 22.9215 27.7437C20.3858 30.2145 19 33.6083 19 37.2104V61.413C19 65.0151 20.3858 68.4088 22.9215 70.9392C25.4573 73.4994 28.7891 74.8985 32.3568 74.8985H32.4748L32.8876 75.8809C33.0055 76.7145 33.7131 77.3396 34.5682 77.3396C35.3938 77.3396 36.1309 76.7145 36.2489 75.8809L36.6617 74.8985H60.3383L60.7511 75.8809C60.8691 76.7145 61.5767 77.3396 62.4318 77.3396C63.2574 77.3396 63.9945 76.7145 64.1124 75.8809L64.5252 74.8985H64.6432C68.2109 74.8985 71.5722 73.4994 74.0785 70.9392C76.6142 68.379 78 65.0151 78 61.413V37.2104C77.9705 33.6083 76.5847 30.2145 74.049 27.6544ZM29.1134 70.314C28.2879 70.314 27.6097 69.6293 27.6097 68.7958C27.6097 67.9623 28.2879 67.2776 29.1134 67.2776C29.939 67.2776 30.6172 67.9623 30.6172 68.7958C30.6172 69.6293 29.9685 70.314 29.1134 70.314ZM34.3323 70.314C33.5067 70.314 32.8286 69.6293 32.8286 68.7958C32.8286 67.9623 33.5067 67.2776 34.3323 67.2776C35.1579 67.2776 35.8361 67.9623 35.8361 68.7958C35.8361 69.6293 35.1579 70.314 34.3323 70.314ZM71.4543 48.88C71.4543 48.9395 71.3953 48.9991 71.3658 48.9991C71.1889 49.2075 70.4813 50.5471 70.1864 51.0829C70.0685 51.2913 69.98 51.4402 69.9505 51.4997C68.3288 54.2683 66.7366 56.7094 63.965 58.4658C61.3408 60.1031 58.5692 61.2046 55.945 61.6809C52.2889 62.3358 48.2789 62.6633 43.3548 62.6931H43.2664C40.4948 62.6931 37.8706 62.2763 35.5117 61.4725C33.6837 60.8473 31.9735 59.865 30.4992 58.5849C28.9365 57.1857 27.5802 55.3995 26.7251 53.6134C26.6662 53.4943 26.7251 53.3752 26.8431 53.2859C26.8726 53.2859 26.9315 53.2561 26.961 53.2561C27.1084 53.2561 27.2854 53.2859 27.4918 53.2859H27.5802C27.4623 53.137 27.3148 52.9584 27.1674 52.7798L27.1379 52.75C26.8431 52.363 26.6072 51.976 26.3713 51.6486C26.3123 51.5295 26.3418 51.4104 26.4303 51.3211C26.4598 51.3211 26.4893 51.2913 26.5187 51.2913H26.5777C27.1379 51.202 27.6687 51.1127 28.1404 50.815C28.7891 50.3982 29.1724 49.6242 29.5557 48.9098C29.6147 48.7907 29.6737 48.6418 29.7621 48.5228C29.939 48.1953 30.1159 47.8678 30.2929 47.5404C30.6762 46.8259 31.0595 46.0817 31.4133 45.3374C31.9735 44.1169 32.5042 43.0154 33.2119 42.033C33.3003 41.9139 33.3593 41.8246 33.4478 41.7056C33.4478 41.2888 33.4183 40.872 33.4183 40.4255C33.3888 39.4728 33.3298 38.4607 33.4183 37.5974C33.5952 35.8707 33.8606 34.412 34.5682 32.8938C34.5977 32.8045 34.6567 32.7449 34.6862 32.6854C34.7746 32.5961 34.8926 32.5366 35.0105 32.5068C35.7476 32.3282 36.8386 32.5663 37.6347 32.864C38.5192 33.1915 39.4038 33.6083 40.2294 34.1143C40.6422 34.3823 41.0255 34.68 41.4088 35.0074C41.7331 35.2753 42.028 35.5135 42.3818 35.7517C42.5587 35.6921 42.7356 35.6623 42.9125 35.6028C43.8561 35.3647 44.7996 35.2456 45.7726 35.186C45.7431 35.1563 45.7431 35.1563 45.7136 35.1265C45.4483 34.9181 45.1239 34.6502 45.1239 34.293C45.1239 34.1739 45.2124 34.0846 45.3303 34.0846C45.8611 34.025 46.3623 34.0846 46.8636 34.2036C46.7456 33.9953 46.5982 33.7571 46.5097 33.5189C46.4803 33.4594 46.4508 33.3999 46.4213 33.3106C46.2149 32.8938 45.979 32.3877 46.097 31.9114C46.1264 31.7923 46.2444 31.703 46.3623 31.7328C47.3943 31.8816 48.2199 32.5961 48.8686 33.2808C48.957 33.3999 49.075 33.4892 49.1634 33.5785C49.3698 33.8166 49.6057 34.0548 49.8121 34.2632C49.93 34.3525 50.0185 34.4716 50.1069 34.5609C50.2839 34.7693 50.4313 34.9777 50.6672 35.0074C50.6967 35.0074 50.7556 35.0372 50.7851 35.067C52.3183 35.0372 53.5567 35.1563 54.7066 35.4837C56.6232 33.5189 58.4513 31.6732 61.1934 30.9885C61.3408 30.929 61.4883 30.9588 61.6062 30.9885C61.6946 31.0183 61.7536 31.0778 61.8126 31.1374C62.5497 31.9114 62.7266 32.5068 63.0215 33.4296C63.8471 35.9898 63.4638 38.9965 62.9625 41.0804C63.051 41.1697 63.1689 41.2888 63.2574 41.3781C63.7586 41.8842 64.2304 42.42 64.6727 42.9261C64.938 43.2238 65.2034 43.5513 65.4688 43.849C66.7366 45.2481 68.4763 46.8557 70.6582 47.1236C70.7761 47.1236 70.8646 47.2427 70.8646 47.3915C70.8646 47.4511 70.8351 47.5106 70.7761 47.5404L70.7171 47.5999C70.4518 47.8381 70.1864 48.0762 69.8621 48.2846C70.0685 48.3442 70.3043 48.3739 70.5402 48.4037C70.7761 48.4037 71.0415 48.4632 71.2774 48.5228H71.3068C71.4248 48.6418 71.4838 48.7609 71.4543 48.88Z" fill="#2F2F2F"/>
<defs>
<linearGradient id="paint0_linear" x1="1.9999" y1="48.0002" x2="93.9999" y2="48.0002" gradientUnits="userSpaceOnUse">
<stop stop-color="#CBCBCB"/>
<stop offset="1" stop-color="white"/>
</linearGradient>
<linearGradient id="paint1_linear" x1="32.3562" y1="43.3881" x2="39.0468" y2="43.3881" gradientUnits="userSpaceOnUse">
<stop offset="0.00434033" stop-color="#E0CE00"/>
<stop offset="0.1684" stop-color="#FEF000"/>
</linearGradient>
<linearGradient id="paint2_linear" x1="39.047" y1="43.3881" x2="45.7376" y2="43.3881" gradientUnits="userSpaceOnUse">
<stop offset="0.00351356" stop-color="#28A6A0"/>
<stop offset="0.00856114" stop-color="#28A7A2"/>
<stop offset="0.1684" stop-color="#28C2D1"/>
</linearGradient>
<linearGradient id="paint3_linear" x1="45.707" y1="43.3881" x2="52.3976" y2="43.3881" gradientUnits="userSpaceOnUse">
<stop stop-color="#98C808"/>
<stop offset="0.0195201" stop-color="#98CF09"/>
<stop offset="0.1031" stop-color="#9AE70A"/>
<stop offset="0.1543" stop-color="#9BF00B"/>
</linearGradient>
<linearGradient id="paint4_linear" x1="52.3973" y1="43.3881" x2="57.9728" y2="43.3881" gradientUnits="userSpaceOnUse">
<stop stop-color="#D273DF"/>
<stop offset="0.0242864" stop-color="#D37CE6"/>
<stop offset="0.1049" stop-color="#D494F8"/>
<stop offset="0.1543" stop-color="#D59DFF"/>
</linearGradient>
<linearGradient id="paint5_linear" x1="57.9748" y1="43.3881" x2="64.6653" y2="43.3881" gradientUnits="userSpaceOnUse">
<stop stop-color="#A82100"/>
<stop offset="0.00193362" stop-color="#A92100"/>
<stop offset="0.1684" stop-color="#D83B01"/>
</linearGradient>
<linearGradient id="paint6_linear" x1="64.635" y1="43.3881" x2="71.3256" y2="43.3881" gradientUnits="userSpaceOnUse">
<stop stop-color="#04498B"/>
<stop offset="0.0564711" stop-color="#0359A5"/>
<stop offset="0.1684" stop-color="#0078D4"/>
</linearGradient>
<linearGradient id="paint7_linear" x1="32.3562" y1="61.2049" x2="39.0468" y2="61.2049" gradientUnits="userSpaceOnUse">
<stop offset="5.0459e-08" stop-color="#B4B4B4"/>
<stop offset="0.0938816" stop-color="#CBCBCB"/>
<stop offset="0.1543" stop-color="#D4D4D4"/>
</linearGradient>
<linearGradient id="paint8_linear" x1="39.047" y1="61.2049" x2="45.7376" y2="61.2049" gradientUnits="userSpaceOnUse">
<stop offset="0.005167" stop-color="#8C8C8C"/>
<stop offset="0.1684" stop-color="#AAAAAA"/>
</linearGradient>
<linearGradient id="paint9_linear" x1="45.707" y1="61.2049" x2="52.3976" y2="61.2049" gradientUnits="userSpaceOnUse">
<stop offset="0.000826664" stop-color="#646464"/>
<stop offset="0.0879885" stop-color="#777777"/>
<stop offset="0.1543" stop-color="#808080"/>
</linearGradient>
<linearGradient id="paint10_linear" x1="52.3973" y1="61.2049" x2="57.9728" y2="61.2049" gradientUnits="userSpaceOnUse">
<stop offset="0.000826659" stop-color="#464646"/>
<stop offset="0.1543" stop-color="#555555"/>
</linearGradient>
<linearGradient id="paint11_linear" x1="57.9748" y1="61.2049" x2="64.6653" y2="61.2049" gradientUnits="userSpaceOnUse">
<stop offset="0.00165338" stop-color="#191919"/>
<stop offset="0.1684" stop-color="#2F2F2F"/>
</linearGradient>
<linearGradient id="paint12_linear" x1="64.635" y1="61.2049" x2="71.3256" y2="61.2049" gradientUnits="userSpaceOnUse">
<stop offset="0.00248015" stop-color="#050505"/>
<stop offset="0.1684" stop-color="#101010"/>
</linearGradient>
</defs>
</svg>

<svg width="96" height="96" fill="none" xmlns="http://www.w3.org/2000/svg"><path d="M48 94c25.405 0 46-20.595 46-46S73.405 2 48 2 2 22.595 2 48s20.595 46 46 46Z" fill="url(#a)"/><path d="M48 4c24.3 0 44 19.7 44 44S72.3 92 48 92 4 72.3 4 48 23.7 4 48 4Zm0-4C21.5 0 0 21.5 0 48s21.5 48 48 48 48-21.5 48-48S74.5 0 48 0Z" fill="#969696"/><path d="M32.358 29.472H25.68v27.83h6.68v-27.83Z" fill="#E6E4E3"/><path d="M39.038 29.472h-6.68v27.83h6.68v-27.83Z" fill="url(#b)"/><path d="M45.717 29.472h-6.68v27.83h6.68v-27.83Z" fill="url(#c)"/><path d="M52.396 29.472h-6.679v27.83h6.68v-27.83Z" fill="url(#d)"/><path d="M57.962 29.472h-5.566v27.83h5.566v-27.83Z" fill="url(#e)"/><path d="M64.641 29.472h-6.679v27.83h6.68v-27.83Z" fill="url(#f)"/><path d="M71.32 29.472h-6.678v27.83h6.679v-27.83Z" fill="url(#g)"/><path d="M32.358 57.302H25.68v7.792h6.68v-7.792Z" fill="#FFFDFE"/><path d="M39.038 57.302h-6.68v7.792h6.68v-7.792Z" fill="url(#h)"/><path d="M45.717 57.302h-6.68v7.792h6.68v-7.792Z" fill="url(#i)"/><path d="M52.396 57.302h-6.679v7.792h6.68v-7.792Z" fill="url(#j)"/><path d="M57.962 57.302h-5.566v7.792h5.566v-7.792Z" fill="url(#k)"/><path d="M64.641 57.302h-6.679v7.792h6.68v-7.792Z" fill="url(#l)"/><path d="M71.32 57.302h-6.678v7.792h6.679v-7.792Z" fill="url(#m)"/><path d="M74.049 27.654c-2.536-2.56-5.868-3.959-9.435-3.959h-9.465v-.953c0-1.399-1.12-2.53-2.506-2.53h-.826l5.013-6.281c.471-.596.383-1.489-.207-1.965a1.386 1.386 0 0 0-1.946.208l-5.985 7.562-2.949-5.18a1.378 1.378 0 0 0-1.887-.506 1.406 1.406 0 0 0-.501 1.905l2.447 4.346h-1.445a2.516 2.516 0 0 0-2.506 2.53v.953h-9.494c-3.568 0-6.93 1.4-9.435 3.96C20.386 30.214 19 33.608 19 37.21v24.203c0 3.602 1.386 6.996 3.922 9.526 2.535 2.56 5.867 3.96 9.435 3.96h.118l.413.982a1.692 1.692 0 0 0 1.68 1.459c.826 0 1.563-.626 1.68-1.46l.414-.981h23.676l.413.982a1.692 1.692 0 0 0 1.68 1.459c.826 0 1.564-.626 1.681-1.46l.413-.981h.118c3.568 0 6.93-1.4 9.436-3.96A13.418 13.418 0 0 0 78 61.413V37.21c-.03-3.602-1.415-6.995-3.951-9.556Zm-44.936 42.66a1.517 1.517 0 0 1-1.503-1.518c0-.834.678-1.518 1.503-1.518.826 0 1.504.684 1.504 1.518 0 .833-.649 1.518-1.504 1.518Zm5.22 0a1.517 1.517 0 0 1-1.504-1.518c0-.834.678-1.518 1.503-1.518.826 0 1.504.684 1.504 1.518 0 .833-.678 1.518-1.504 1.518Zm37.12-21.434c0 .06-.059.12-.088.12-.177.208-.885 1.547-1.18 2.083-.118.208-.206.357-.236.417-1.621 2.768-3.213 5.21-5.985 6.966-2.624 1.637-5.396 2.739-8.02 3.215-3.656.655-7.666.982-12.59 1.012h-.089c-2.771 0-5.395-.417-7.754-1.22a15.131 15.131 0 0 1-5.013-2.888c-1.563-1.4-2.919-3.185-3.774-4.972-.059-.119 0-.238.118-.327.03 0 .088-.03.118-.03.147 0 .324.03.53.03h.09a34.838 34.838 0 0 0-.414-.506l-.03-.03c-.294-.387-.53-.774-.766-1.101a.272.272 0 0 1 .06-.328c.029 0 .058-.03.088-.03h.059c.56-.089 1.09-.178 1.562-.476.65-.417 1.032-1.19 1.416-1.905.059-.12.118-.268.206-.387l.53-.983c.384-.714.767-1.458 1.121-2.203.56-1.22 1.091-2.322 1.799-3.304.088-.12.147-.208.236-.327 0-.417-.03-.834-.03-1.28-.03-.953-.088-1.965 0-2.829.177-1.726.443-3.185 1.15-4.703.03-.09.089-.15.118-.209a.701.701 0 0 1 .325-.178c.737-.179 1.828.06 2.624.357.884.328 1.769.744 2.594 1.25.413.268.797.566 1.18.893.324.268.619.507.973.745.177-.06.354-.09.53-.15.944-.237 1.888-.356 2.86-.416l-.058-.06c-.266-.208-.59-.476-.59-.833 0-.12.088-.208.206-.208.531-.06 1.032 0 1.534.119-.118-.209-.266-.447-.354-.685-.03-.06-.06-.12-.089-.208-.206-.417-.442-.923-.324-1.4.03-.119.147-.208.265-.178 1.032.149 1.858.863 2.507 1.548.088.119.206.208.294.297.207.239.443.477.65.685.117.09.206.209.294.298.177.208.324.417.56.446.03 0 .089.03.118.06 1.533-.03 2.772.09 3.922.417 1.916-1.965 3.744-3.81 6.486-4.496.148-.059.295-.03.413 0a.53.53 0 0 1 .207.15c.737.773.914 1.369 1.209 2.292.825 2.56.442 5.566-.06 7.65l.295.298c.502.506.973 1.042 1.416 1.548.265.298.53.625.796.923 1.268 1.4 3.007 3.007 5.19 3.275.117 0 .206.119.206.267 0 .06-.03.12-.089.15l-.059.059c-.265.238-.53.476-.855.685.207.06.442.089.678.119.236 0 .501.06.737.119h.03c.118.119.177.238.147.357Z" fill="#2F2F2F"/><defs><linearGradient id="a" x1="2" y1="48" x2="94" y2="48" gradientUnits="userSpaceOnUse"><stop stop-color="#CBCBCB"/><stop offset="1" stop-color="#fff"/></linearGradient><linearGradient id="b" x1="32.356" y1="43.388" x2="39.047" y2="43.388" gradientUnits="userSpaceOnUse"><stop offset=".004" stop-color="#E0CE00"/><stop offset=".168" stop-color="#FEF000"/></linearGradient><linearGradient id="c" x1="39.047" y1="43.388" x2="45.738" y2="43.388" gradientUnits="userSpaceOnUse"><stop offset=".004" stop-color="#28A6A0"/><stop offset=".009" stop-color="#28A7A2"/><stop offset=".168" stop-color="#28C2D1"/></linearGradient><linearGradient id="d" x1="45.707" y1="43.388" x2="52.398" y2="43.388" gradientUnits="userSpaceOnUse"><stop stop-color="#98C808"/><stop offset=".02" stop-color="#98CF09"/><stop offset=".103" stop-color="#9AE70A"/><stop offset=".154" stop-color="#9BF00B"/></linearGradient><linearGradient id="e" x1="52.397" y1="43.388" x2="57.973" y2="43.388" gradientUnits="userSpaceOnUse"><stop stop-color="#D273DF"/><stop offset=".024" stop-color="#D37CE6"/><stop offset=".105" stop-color="#D494F8"/><stop offset=".154" stop-color="#D59DFF"/></linearGradient><linearGradient id="f" x1="57.975" y1="43.388" x2="64.665" y2="43.388" gradientUnits="userSpaceOnUse"><stop stop-color="#A82100"/><stop offset=".002" stop-color="#A92100"/><stop offset=".168" stop-color="#D83B01"/></linearGradient><linearGradient id="g" x1="64.635" y1="43.388" x2="71.326" y2="43.388" gradientUnits="userSpaceOnUse"><stop stop-color="#04498B"/><stop offset=".056" stop-color="#0359A5"/><stop offset=".168" stop-color="#0078D4"/></linearGradient><linearGradient id="h" x1="32.356" y1="61.205" x2="39.047" y2="61.205" gradientUnits="userSpaceOnUse"><stop offset="0" stop-color="#B4B4B4"/><stop offset=".094" stop-color="#CBCBCB"/><stop offset=".154" stop-color="#D4D4D4"/></linearGradient><linearGradient id="i" x1="39.047" y1="61.205" x2="45.738" y2="61.205" gradientUnits="userSpaceOnUse"><stop offset=".005" stop-color="#8C8C8C"/><stop offset=".168" stop-color="#AAA"/></linearGradient><linearGradient id="j" x1="45.707" y1="61.205" x2="52.398" y2="61.205" gradientUnits="userSpaceOnUse"><stop offset=".001" stop-color="#646464"/><stop offset=".088" stop-color="#777"/><stop offset=".154" stop-color="gray"/></linearGradient><linearGradient id="k" x1="52.397" y1="61.205" x2="57.973" y2="61.205" gradientUnits="userSpaceOnUse"><stop offset=".001" stop-color="#464646"/><stop offset=".154" stop-color="#555"/></linearGradient><linearGradient id="l" x1="57.975" y1="61.205" x2="64.665" y2="61.205" gradientUnits="userSpaceOnUse"><stop offset=".002" stop-color="#191919"/><stop offset=".168" stop-color="#2F2F2F"/></linearGradient><linearGradient id="m" x1="64.635" y1="61.205" x2="71.326" y2="61.205" gradientUnits="userSpaceOnUse"><stop offset=".002" stop-color="#050505"/><stop offset=".168" stop-color="#101010"/></linearGradient></defs></svg>
